X:0196
T:Irish Lilt.
M:6/8
L:1/8
Q:3/8=120
I: :: ::
Z:Jack Campin * www.campin.me.uk * 2009
K:D
A/G/| FDD D2F|GEE E2c|dcB ABG|FDD D2:|
d/e/|Tfef def|ede cde|dcd Bed|cAA A3 |
      BAB GAB|AGA FGA|GFG EAG|FDD D2|]
<end>
<start>
